shared/images/iconfont/kb-iconfont-shh-16.svg

<?xml version="1.0" encoding="UTF-8"?>
<svg width="16px" height="16px" viewBox="0 0 16 16" version="1.1" xmlns="http://www.w3.org/2000/svg" xmlns:xlink="http://www.w3.org/1999/xlink">
    <!-- Generator: sketchtool 41.2 (35397) - http://www.bohemiancoding.com/sketch -->
    <title>FF0836A3-C83E-4492-A6A1-20039FAE89F8</title>
    <desc>Created with sketchtool.</desc>
    <defs></defs>
    <g id="Icons" stroke="none" stroke-width="1" fill="none" fill-rule="evenodd">
        <g id="Style-guide---Desktop---Icons-2" transform="translate(-431.000000, -1027.000000)">
            <g id="kb-iconfont-shh-16" transform="translate(431.000000, 1027.000000)">
                <g id="kb-iconfont-shh">
                    <rect id="icon-area" x="0" y="0" width="16" height="16"></rect>
                    <path d="M4.37114144,7.90888804 C4.3260144,7.93596912 4.27027355,7.94950946 4.20391721,7.94950946 C4.13756087,7.94950946 4.07502361,7.93427658 4.01630356,7.90381036 C3.95758351,7.87334414 3.89471787,7.83864703 3.82770475,7.79971798 C3.76069163,7.76078892 3.68289603,7.72609181 3.59431563,7.69562559 C3.50573522,7.66515938 3.40006699,7.6499265 3.27730776,7.6499265 C3.04837838,7.6499265 2.87617844,7.69477886 2.76070276,7.78448494 C2.64522709,7.87419103 2.5735431,7.99013016 2.54564865,8.13230584 C2.52771651,8.22370449 2.53981278,8.30156143 2.58193785,8.36587899 C2.62406291,8.43019656 2.68493391,8.48774299 2.76455267,8.53852002 C2.84417142,8.58929705 2.9370608,8.63584196 3.04322356,8.67815615 C3.14938633,8.72047034 3.25703962,8.76786152 3.36618666,8.82033111 C3.47533369,8.87280071 3.58049644,8.93288595 3.68167806,9.00058865 C3.78285968,9.06829136 3.8686095,9.15122592 3.93893011,9.24939484 C4.00925072,9.34756376 4.0584992,9.46434917 4.08667704,9.59975457 C4.11485488,9.73515998 4.11067964,9.89595148 4.07415119,10.0821339 C4.02234722,10.3461745 3.92194123,10.5958244 3.77293023,10.8310913 C3.62391923,11.0663582 3.43609789,11.2711558 3.20946059,11.4454903 C2.98282329,11.6198247 2.72252025,11.7586132 2.42854366,11.8618598 C2.13456706,11.9651064 1.81671595,12.016729 1.47498079,12.016729 C1.31240776,12.016729 1.15481676,11.9998035 1.00220307,11.9659522 C0.849589389,11.9321008 0.708426357,11.8864022 0.578709741,11.8288549 C0.448993126,11.7713076 0.33387855,11.7027596 0.233362561,11.623209 C0.132846572,11.5436583 0.0550598295,11.4581849 0,11.3667863 L0.49179895,10.7879311 C0.55153146,10.7202284 0.615905441,10.6669133 0.684922823,10.6279842 C0.753940206,10.5890552 0.833238238,10.5695909 0.922819299,10.5695909 C1.00576473,10.5695909 1.07311186,10.5899014 1.12486273,10.6305231 C1.17661359,10.6711447 1.23267619,10.7151508 1.2930522,10.7625427 C1.35342821,10.8099346 1.42773852,10.8539407 1.51598537,10.8945623 C1.60423223,10.9351839 1.72632252,10.9554944 1.88225993,10.9554944 C2.10123585,10.9554944 2.27360257,10.9055644 2.39936525,10.8057029 C2.52512793,10.7058414 2.60129119,10.5882098 2.62785734,10.4528044 C2.6484461,10.3478652 2.63801018,10.2615455 2.59654927,10.1938428 C2.55508836,10.1261401 2.4943834,10.0677474 2.41443256,10.018663 C2.33448173,9.96957849 2.24192369,9.92557239 2.13675567,9.88664334 C2.03158766,9.84771429 1.92393363,9.80455446 1.81379037,9.75716257 C1.7036471,9.70977068 1.59831758,9.65476306 1.49779864,9.59213806 C1.3972797,9.52951306 1.31152914,9.45080985 1.24054438,9.35602606 C1.16955961,9.26124228 1.12031113,9.14445687 1.09279744,9.00566633 C1.06528376,8.86687579 1.07078729,8.69931412 1.10930819,8.50297628 C1.15712725,8.25924655 1.24757772,8.02229065 1.38066232,7.79210146 C1.51374691,7.56191227 1.68481337,7.35796094 1.89386683,7.18024135 C2.10292029,7.00252175 2.34746468,6.85950194 2.62750733,6.75117762 C2.90754997,6.64285329 3.2200931,6.58869194 3.56514607,6.58869194 C3.91019905,6.58869194 4.20596739,6.64962346 4.45245995,6.77148833 C4.69895251,6.89335319 4.89285005,7.0422969 5.03415837,7.21832393 L4.52643752,7.77686843 C4.46803331,7.83780086 4.41626847,7.88180696 4.37114144,7.90888804 Z M8.40037093,5.44413556 C8.68705216,5.31888556 8.96973686,5.2562615 9.24843349,5.2562615 C9.4640916,5.2562615 9.65203545,5.3002676 9.81227067,5.38828111 C9.97250589,5.47629463 10.0957385,5.60492783 10.1819723,5.77418459 C10.268206,5.94344134 10.3117982,6.1524703 10.3127502,6.40127773 C10.3137021,6.65008516 10.2627247,6.93527852 10.1598163,7.25686635 L9.4116944,9.65312272 C9.24790149,10.1777562 8.6605814,10.6030557 8.11193248,10.6030557 L8.5755325,10.6030557 C8.02148672,10.6030557 7.70465524,10.1792585 7.86891717,9.65312272 L8.61703906,7.25686635 C8.66152259,7.11469068 8.69007634,6.99452019 8.70270116,6.89635127 C8.71532598,6.79818235 8.71268564,6.71863287 8.69478005,6.65770044 C8.67687446,6.596768 8.6438702,6.55360818 8.59576627,6.52821966 C8.54766235,6.50283115 8.48545643,6.49013708 8.40914664,6.49013708 C8.30629431,6.49013708 8.19232354,6.52144912 8.06723092,6.58407411 C7.94213829,6.64669911 7.81604765,6.73555758 7.68895519,6.85065217 C7.56186273,6.96574677 7.43659267,7.1053815 7.31314125,7.26956055 C7.18968983,7.4337396 7.0785129,7.61568788 6.97960714,7.81541086 L6.40221272,9.64370647 C6.23488576,10.1735404 5.64470075,10.6030557 5.09605183,10.6030557 L5.55965185,10.6030557 C5.00560607,10.6030557 4.69221039,10.1725985 4.86005872,9.64034795 L6.64997665,3.96448052 C6.81764781,3.43279172 7.40811185,3.00177279 7.95676077,3.00177279 L7.49316076,3.00177279 C8.04720653,3.00177279 8.36396774,3.42256624 8.1951076,3.95931165 L7.5442766,6.02806845 C7.82832778,5.76402791 8.1136897,5.56938556 8.40037093,5.44413556 Z M14.0876077,4.44236277 C14.3742889,4.31711277 14.6569736,4.25448871 14.9356702,4.25448871 C15.1513284,4.25448871 15.3392722,4.29849481 15.4995074,4.38650832 C15.6597426,4.47452184 15.7829753,4.60315504 15.869209,4.7724118 C15.9554427,4.94166855 15.9990349,5.15069751 15.9999869,5.39950494 C16.0009389,5.64831237 15.9499614,5.93350573 15.847053,6.25509356 L15.0989312,8.65134993 C14.9351382,9.17598342 14.3478182,9.6012829 13.7991692,9.6012829 L14.2627692,9.6012829 C13.7087235,9.6012829 13.391892,9.1774857 13.5561539,8.65134993 L14.3042758,6.25509356 C14.3487593,6.11291789 14.3773131,5.9927474 14.3899379,5.89457848 C14.4025627,5.79640956 14.3999224,5.71686008 14.3820168,5.65592765 C14.3641112,5.59499521 14.3311069,5.55183539 14.283003,5.52644687 C14.2348991,5.50105836 14.1726932,5.48836429 14.0963834,5.48836429 C13.9935311,5.48836429 13.8795603,5.51967632 13.7544677,5.58230132 C13.629375,5.64492632 13.5032844,5.73378479 13.3761919,5.84887938 C13.2490995,5.96397398 13.1238294,6.1036087 13.000378,6.26778776 C12.8769266,6.43196681 12.7657497,6.61391509 12.6668439,6.81363807 L12.0894495,8.64193368 C11.9221225,9.17176762 11.3319375,9.6012829 10.7832886,9.6012829 L11.2468886,9.6012829 C10.6928428,9.6012829 10.3794471,9.17082575 10.5472955,8.63857516 L12.3372134,2.96270773 C12.5048846,2.43101893 13.0953486,2 13.6439975,2 L13.1803975,2 C13.7344433,2 14.0512045,2.42079345 13.8823444,2.95753886 L13.2315133,5.02629566 C13.5155645,4.76225512 13.8009264,4.56761277 14.0876077,4.44236277 Z M14.1882608,12.4209201 C14.7383608,12.3597978 15.135615,11.8720378 15.0743196,11.3203793 L15.0931518,11.4898691 C15.0324085,10.9431795 14.5402882,10.5492087 13.987122,10.6106716 L5.9727136,11.5011614 C5.42261354,11.5622836 5.0253594,12.0500437 5.08665479,12.6017021 L5.06782259,12.4322123 C5.12856588,12.978902 5.62068616,13.3728728 6.17385232,13.3114099 L14.1882608,12.4209201 Z" id="Combined-Shape" fill="#000000"></path>
                </g>
            </g>
        </g>
    </g>
</svg>

<svg xmlns="http://www.w3.org/2000/svg" width="16" height="16" viewBox="0 0 16 16">
    <g fill="none" fill-rule="evenodd">
        <path d="M0 0h16v16H0z"/>
        <path fill="#000" d="M4.371 7.909a.32.32 0 0 1-.167.04.402.402 0 0 1-.188-.045 4.54 4.54 0 0 1-.188-.104 1.318 1.318 0 0 0-.234-.104.978.978 0 0 0-.317-.046c-.229 0-.4.045-.516.134a.565.565 0 0 0-.215.348.304.304 0 0 0 .036.234.596.596 0 0 0 .183.173c.08.05.172.097.278.14.106.041.214.089.323.141.11.053.214.113.316.18.1.068.187.151.257.25.07.098.12.214.148.35.028.135.024.296-.013.482a2.171 2.171 0 0 1-.301.75c-.15.234-.337.44-.564.613a2.782 2.782 0 0 1-.78.417 2.858 2.858 0 0 1-.954.155 2.236 2.236 0 0 1-.896-.188 1.596 1.596 0 0 1-.346-.206.97.97 0 0 1-.233-.256l.492-.58a.75.75 0 0 1 .193-.159.476.476 0 0 1 .238-.058c.083 0 .15.02.202.06l.168.133c.06.047.135.09.223.132.088.04.21.06.366.06.22 0 .392-.05.517-.15a.593.593 0 0 0 .229-.352.353.353 0 0 0-.031-.26.537.537 0 0 0-.183-.174 1.576 1.576 0 0 0-.277-.132 6.721 6.721 0 0 1-.323-.13 2.362 2.362 0 0 1-.316-.165.852.852 0 0 1-.405-.586 1.317 1.317 0 0 1 .016-.503 2.33 2.33 0 0 1 .785-1.323 2.531 2.531 0 0 1 1.671-.591c.345 0 .641.06.887.182.247.122.44.271.582.447l-.508.559a.798.798 0 0 1-.155.132zm4.03-2.465c.286-.125.569-.188.847-.188.216 0 .404.044.564.132.16.088.284.217.37.386.086.17.13.378.13.627.002.25-.05.534-.152.856l-.748 2.396c-.164.525-.751.95-1.3.95h.464c-.555 0-.871-.424-.707-.95l.748-2.396a2.18 2.18 0 0 0 .086-.36.597.597 0 0 0-.008-.24.202.202 0 0 0-.1-.129.399.399 0 0 0-.186-.038.774.774 0 0 0-.342.094 1.714 1.714 0 0 0-.378.267 2.975 2.975 0 0 0-.376.419 3.461 3.461 0 0 0-.333.545l-.578 1.829c-.167.53-.757.96-1.306.96h.464c-.554 0-.868-.431-.7-.964l1.79-5.676c.168-.531.758-.962 1.307-.962h-.464c.554 0 .871.42.702.957l-.65 2.07c.283-.265.569-.46.855-.585zm5.687-1.002c.286-.125.569-.188.848-.188.215 0 .403.044.564.133.16.088.283.216.37.385.085.17.129.379.13.628 0 .248-.05.534-.153.855L15.1 8.651c-.164.525-.751.95-1.3.95h.464c-.554 0-.871-.424-.707-.95l.748-2.396a2.18 2.18 0 0 0 .086-.36.597.597 0 0 0-.008-.24.202.202 0 0 0-.099-.129.399.399 0 0 0-.187-.038.774.774 0 0 0-.342.094 1.714 1.714 0 0 0-.378.267 2.975 2.975 0 0 0-.376.419 3.461 3.461 0 0 0-.333.546l-.578 1.828c-.167.53-.757.96-1.306.96h.464c-.554 0-.868-.431-.7-.963l1.79-5.676c.168-.532.758-.963 1.307-.963h-.464c.554 0 .871.42.702.958l-.65 2.068c.284-.264.569-.458.856-.584zm.1 7.979a.996.996 0 0 0 .886-1.1l.02.169a.997.997 0 0 0-1.107-.88l-8.014.891a.996.996 0 0 0-.886 1.1l-.02-.169c.062.547.554.94 1.107.88l8.014-.891z"/>
    </g>
</svg>
